packages/tokens/icons/sun/size32Px.svg

<svg viewBox="0 0 32 32" fill="none" xmlns="http://www.w3.org/2000/svg" width="1em" height="1em"><circle cx="8" cy="8" r="7.5" transform="matrix(-1 0 0 1 24 8)" stroke="currentColor"/><path d="M26 26L23.8787 23.8787M8 8L5.87868 5.87868M16 5.5V2.5M16 29.5V26.5M29.5 16H26.5M5.5 16H2.5M5.99994 26L8.12126 23.8787M23.8786 8.12135L26 6.00003" stroke="currentColor" stroke-linecap="round"/></svg>

<svg xmlns="http://www.w3.org/2000/svg" fill="none" viewBox="0 0 32 32" width="1em" height="1em"><circle cx="8" cy="8" r="7.5" stroke="currentColor" transform="matrix(-1 0 0 1 24 8)"/><path stroke="currentColor" stroke-linecap="round" d="m26 26-2.121-2.121M8 8 5.879 5.879M16 5.5v-3m0 27v-3M29.5 16h-3m-21 0h-3M6 26l2.121-2.121M23.88 8.12 26 6"/></svg>
